public/images/pages/index/information.svg

<svg fill="none" height="16" viewBox="0 0 16 16" width="16" xmlns="http://www.w3.org/2000/svg" xmlns:xlink="http://www.w3.org/1999/xlink"><linearGradient id="a" gradientUnits="userSpaceOnUse" x1="-8.04001" x2="23.96" y1="-7.624" y2="24.376"><stop offset="0" stop-color="#ff91be"/><stop offset="1" stop-color="#91c3ff"/></linearGradient><path d="m9.496 13.976h1.424v1.616h-5.744v-1.616h1.36c.08533 0 .144-.0053.176-.016s.05867-.0213.08-.032c.032-.032.048-.112.048-.24v-5.312c0-.14933-.016-.25067-.048-.304s-.05867-.09067-.08-.112c-.11733-.096-.29867-.144-.544-.144h-1.168v-1.6l4.288-.112v7.728.064c.01067.0107.016.0213.016.032.032.032.096.048.192.048zm-1.68-9.68c-.448 0-.832-.16-1.152-.48-.33067-.33067-.496-.71467-.496-1.152 0-.42667.16533-.816.496-1.168.33067-.33067.71467-.496 1.152-.496s.82133.16533 1.152.496c.33067.352.496.74133.496 1.168 0 .448-.16.832-.48 1.152s-.70933.48-1.168.48z" fill="url(#a)"/></svg>

<svg width="16" height="16" viewBox="0 0 16 16" fill="none" xmlns="http://www.w3.org/2000/svg">
<path d="M9.496 13.976H10.92V15.592H5.176V13.976H6.536C6.62133 13.976 6.68 13.9707 6.712 13.96C6.744 13.9493 6.77067 13.9387 6.792 13.928C6.824 13.896 6.84 13.816 6.84 13.688V8.376C6.84 8.22667 6.824 8.12533 6.792 8.072C6.76 8.01867 6.73333 7.98133 6.712 7.96C6.59467 7.864 6.41333 7.816 6.168 7.816H5V6.216L9.288 6.104V13.832C9.288 13.8533 9.288 13.8747 9.288 13.896C9.29867 13.9067 9.304 13.9173 9.304 13.928C9.336 13.96 9.4 13.976 9.496 13.976ZM7.816 4.296C7.368 4.296 6.984 4.136 6.664 3.816C6.33333 3.48533 6.168 3.10133 6.168 2.664C6.168 2.23733 6.33333 1.848 6.664 1.496C6.99467 1.16533 7.37867 1 7.816 1C8.25333 1 8.63733 1.16533 8.968 1.496C9.29867 1.848 9.464 2.23733 9.464 2.664C9.464 3.112 9.304 3.496 8.984 3.816C8.664 4.136 8.27467 4.296 7.816 4.296Z" fill="url(#paint0_linear)"/>
<defs>
<linearGradient id="paint0_linear" x1="-8.04001" y1="-7.624" x2="23.96" y2="24.376" gradientUnits="userSpaceOnUse">
<stop stop-color="#FF91BE"/>
<stop offset="1" stop-color="#91C3FF"/>
</linearGradient>
</defs>
</svg>
